icons/circle/48/dconf-editor.svg

<svg xmlns="http://www.w3.org/2000/svg" viewBox="0 0 48 48">
 <defs>
  <linearGradient id="linearGradient3764" x1="1" x2="47" gradientUnits="userSpaceOnUse" gradientTransform="matrix(0,-1,1,0,-1.5e-6,47.999998)">
   <stop style="stop-color:#ff8265;stop-opacity:1"/>
   <stop offset="1" style="stop-color:#ff9278;stop-opacity:1"/>
  </linearGradient>
 </defs>
 <g>
  <path d="m 36.31 5 c 5.859 4.062 9.688 10.831 9.688 18.5 c 0 12.426 -10.07 22.5 -22.5 22.5 c -7.669 0 -14.438 -3.828 -18.5 -9.688 c 1.037 1.822 2.306 3.499 3.781 4.969 c 4.085 3.712 9.514 5.969 15.469 5.969 c 12.703 0 23 -10.298 23 -23 c 0 -5.954 -2.256 -11.384 -5.969 -15.469 c -1.469 -1.475 -3.147 -2.744 -4.969 -3.781 z m 4.969 3.781 c 3.854 4.113 6.219 9.637 6.219 15.719 c 0 12.703 -10.297 23 -23 23 c -6.081 0 -11.606 -2.364 -15.719 -6.219 c 4.16 4.144 9.883 6.719 16.219 6.719 c 12.703 0 23 -10.298 23 -23 c 0 -6.335 -2.575 -12.06 -6.719 -16.219 z" style="opacity:0.05"/>
  <path d="m 41.28 8.781 c 3.712 4.085 5.969 9.514 5.969 15.469 c 0 12.703 -10.297 23 -23 23 c -5.954 0 -11.384 -2.256 -15.469 -5.969 c 4.113 3.854 9.637 6.219 15.719 6.219 c 12.703 0 23 -10.298 23 -23 c 0 -6.081 -2.364 -11.606 -6.219 -15.719 z" style="opacity:0.1"/>
  <path d="m 31.25 2.375 c 8.615 3.154 14.75 11.417 14.75 21.13 c 0 12.426 -10.07 22.5 -22.5 22.5 c -9.708 0 -17.971 -6.135 -21.12 -14.75 a 23 23 0 0 0 44.875 -7 a 23 23 0 0 0 -16 -21.875 z" style="opacity:0.2"/>
 </g>
 <g>
  <path d="m 24 1 c 12.703 0 23 10.297 23 23 c 0 12.703 -10.297 23 -23 23 -12.703 0 -23 -10.297 -23 -23 0 -12.703 10.297 -23 23 -23 z" style="fill:url(#linearGradient3764);fill-opacity:1"/>
 </g>
 <g>
  <g>
   <g transform="translate(1,1)">
    <g style="opacity:0.1">
     <!-- color: #ff9278 -->
     <g>
      <path d="m 13.75 18 c -0.969 0 -1.75 0.785 -1.75 1.75 l 0 10.5 c 0 0.965 0.781 1.75 1.75 1.75 l 10.496 0 c 0.7 0 1.298 -0.413 1.578 -1 l 10.176 0 c 1.105 0 2 -0.894 2 -1.996 l 0 -8 c 0 -1.105 -0.895 -2 -2 -2 l -10.18 0 c -0.281 -0.589 -0.876 -1 -1.574 -1 l -10.496 0 z" transform="translate(-1,-1)"/>
     </g>
    </g>
   </g>
  </g>
 </g>
 <g>
  <g>
   <!-- color: #ff9278 -->
   <g>
    <path d="m 15 18 20 0 c 1.105 0 2 0.895 2 2 l 0 8 c 0 1.102 -0.895 1.996 -2 1.996 l -20 0 c -1.105 0 -2 -0.895 -2 -1.996 l 0 -8 c 0 -1.105 0.895 -2 2 -2 m 0 0" style="fill:#bf2020;fill-opacity:1;stroke:none;fill-rule:nonzero"/>
    <path d="m 12.75,17 10.496,0 c 0.969,0 1.75,0.785 1.75,1.75 l 0,10.5 c 0,0.965 -0.781,1.75 -1.75,1.75 L 12.75,31 C 11.781,31 11,30.215 11,29.25 l 0,-10.5 C 11,17.785 11.781,17 12.75,17 m 0,0" style="fill:#f9f9f9;fill-opacity:1;stroke:none;fill-rule:nonzero"/>
    <path d="m 14,19 8,0 0,1.996 -8,0 M 14,19" style="fill:#c8c8c8;fill-opacity:1;stroke:none;fill-rule:nonzero"/>
    <path d="m 14,23 8,0 0,1.996 -8,0 M 14,23" style="fill:#c8c8c8;fill-opacity:1;stroke:none;fill-rule:nonzero"/>
    <path d="m 14 27 8 0 0 2 -8 0 m 0 -2" style="fill:#c8c8c8;fill-opacity:1;stroke:none;fill-rule:nonzero"/>
   </g>
  </g>
 </g>
 <g>
  <path d="m 40.03 7.531 c 3.712 4.084 5.969 9.514 5.969 15.469 0 12.703 -10.297 23 -23 23 c -5.954 0 -11.384 -2.256 -15.469 -5.969 4.178 4.291 10.01 6.969 16.469 6.969 c 12.703 0 23 -10.298 23 -23 0 -6.462 -2.677 -12.291 -6.969 -16.469 z" style="opacity:0.1"/>
 </g>
</svg>

<svg xmlns="http://www.w3.org/2000/svg" viewBox="0 0 48 48">
  <defs>
    <linearGradient id="a" x1="1" x2="47" gradientUnits="userSpaceOnUse" gradientTransform="rotate(-90 24 24)">
      <stop stop-color="#ff8265"/>
      <stop offset="1" stop-color="#ff9278"/>
    </linearGradient>
  </defs>
  <path d="M36.31 5c5.859 4.062 9.688 10.831 9.688 18.5 0 12.426-10.07 22.5-22.5 22.5-7.669 0-14.438-3.828-18.5-9.688a23.24 23.24 0 0 0 3.781 4.969 22.923 22.923 0 0 0 15.469 5.969c12.703 0 23-10.298 23-23a22.92 22.92 0 0 0-5.969-15.469A23.216 23.216 0 0 0 36.31 5zm4.969 3.781A22.911 22.911 0 0 1 47.498 24.5c0 12.703-10.297 23-23 23a22.909 22.909 0 0 1-15.719-6.219C12.939 45.425 18.662 48 24.998 48c12.703 0 23-10.298 23-23 0-6.335-2.575-12.06-6.719-16.219z" opacity=".05"/>
  <path d="M41.28 8.781a22.923 22.923 0 0 1 5.969 15.469c0 12.703-10.297 23-23 23A22.92 22.92 0 0 1 8.78 41.281 22.911 22.911 0 0 0 24.499 47.5c12.703 0 23-10.298 23-23A22.909 22.909 0 0 0 41.28 8.781z" opacity=".1"/>
  <path d="M31.25 2.375C39.865 5.529 46 13.792 46 23.505c0 12.426-10.07 22.5-22.5 22.5-9.708 0-17.971-6.135-21.12-14.75a23 23 0 0 0 44.875-7 23 23 0 0 0-16-21.875z" opacity=".2"/>
  <path d="M24 1c12.703 0 23 10.297 23 23S36.703 47 24 47 1 36.703 1 24 11.297 1 24 1z" fill="url(#a)"/>
  <path d="M13.75 18A1.75 1.75 0 0 0 12 19.75v10.5c0 .965.781 1.75 1.75 1.75h10.496c.7 0 1.298-.413 1.578-1H36c1.105 0 2-.894 2-1.996v-8a2 2 0 0 0-2-2H25.82c-.281-.589-.876-1-1.574-1H13.75z" opacity=".1"/>
  <g>
    <path d="M15 18h20a2 2 0 0 1 2 2v8a1.998 1.998 0 0 1-2 1.996H15c-1.105 0-2-.895-2-1.996v-8a2 2 0 0 1 2-2m0 0" fill="#bf2020"/>
    <path d="M12.75 17h10.496c.969 0 1.75.785 1.75 1.75v10.5a1.75 1.75 0 0 1-1.75 1.75H12.75A1.75 1.75 0 0 1 11 29.25v-10.5c0-.965.781-1.75 1.75-1.75m0 0" fill="#f9f9f9"/>
    <path d="M14 19h8v1.996h-8M14 23h8v1.996h-8M14 27h8v2h-8m0-2" fill="#c8c8c8"/>
  </g>
  <g>
    <path d="M40.03 7.531A22.922 22.922 0 0 1 45.999 23c0 12.703-10.297 23-23 23A22.92 22.92 0 0 1 7.53 40.031C11.708 44.322 17.54 47 23.999 47c12.703 0 23-10.298 23-23 0-6.462-2.677-12.291-6.969-16.469z" opacity=".1"/>
  </g>
</svg>
